static/app-icons/dark-theme/CognosAnalytics.svg

<svg xmlns="http://www.w3.org/2000/svg" xmlns:xlink="http://www.w3.org/1999/xlink" viewBox="0 0 32 32"><defs><linearGradient id="linear-gradient" x1="10" y1="22.002" x2="22" y2="22.002" gradientUnits="userSpaceOnUse"><stop offset=".4" stop-color="#fff"/><stop offset="1"/></linearGradient><linearGradient id="linear-gradient-2" x1="22.999" y1="16" x2="34.999" y2="16" gradientTransform="translate(-16.999)" xlink:href="#linear-gradient"/><linearGradient id="linear-gradient-3" x1="12.999" y1="28" x2="26.999" y2="28" gradientTransform="translate(1.001)" xlink:href="#linear-gradient"/><linearGradient id="linear-gradient-4" x1="12.999" y1="4" x2="26.999" y2="4" gradientTransform="translate(1.001)" xlink:href="#linear-gradient"/><linearGradient id="linear-gradient-5" x1="10" y1="9.998" x2="22" y2="9.998" xlink:href="#linear-gradient"/><linearGradient id="linear-gradient-6" y1="32" x2="32" gradientUnits="userSpaceOnUse"><stop offset=".1" stop-color="#3ddbd9"/><stop offset=".9" stop-color="#4589ff"/></linearGradient><style>.cls-8{fill:#f4f4f4}</style><mask id="mask" x="0" y="0" width="32" height="32" maskUnits="userSpaceOnUse"><path d="M11 21h11v2H11a1 1 0 01-1-1 1 1 0 011-1z" fill="url(#linear-gradient)"/><path d="M18 17H7a1 1 0 01-1-1 1 1 0 011-1h11z" fill="url(#linear-gradient-2)"/><path d="M15 27h13v2H15a1 1 0 01-1-1 1 1 0 011-1z" fill="url(#linear-gradient-3)"/><path d="M15 3h13v2H15a1 1 0 01-1-1 1 1 0 011-1z" fill="url(#linear-gradient-4)"/><path d="M22 11H11a1 1 0 01-1-1 1 1 0 011-1h11z" fill="url(#linear-gradient-5)"/></mask></defs><g id="Layer_2" data-name="Layer 2"><g id="Dark_theme_icons" data-name="Dark theme icons"><g mask="url(#mask)"><path id="Color" fill="url(#linear-gradient-6)" d="M0 0h32v32H0z"/></g><rect class="cls-8" x="10" y="3" width="2" height="2" rx="1" transform="rotate(180 11 4)"/><rect class="cls-8" x="10" y="27" width="2" height="2" rx="1" transform="rotate(-180 11 28)"/><rect class="cls-8" x="6" y="21" width="2" height="2" rx="1" transform="rotate(180 7 22)"/><rect class="cls-8" x="2" y="15" width="2" height="2" rx="1" transform="rotate(-180 3 16)"/><rect class="cls-8" x="6" y="8.999" width="2" height="2" rx="1" transform="rotate(180 7 9.998)"/></g></g></svg>

<svg xmlns="http://www.w3.org/2000/svg" xmlns:xlink="http://www.w3.org/1999/xlink" viewBox="0 0 32 32"><defs><style>.cls-1{fill:url(#linear-gradient);}.cls-2{fill:url(#linear-gradient-2);}.cls-3{fill:url(#linear-gradient-3);}.cls-4{fill:url(#linear-gradient-4);}.cls-5{fill:url(#linear-gradient-5);}.cls-6{mask:url(#mask);}.cls-7{fill:url(#linear-gradient-6);}.cls-8{fill:#f4f4f4;}</style><linearGradient id="linear-gradient" x1="10" y1="22.002" x2="22" y2="22.002" gradientUnits="userSpaceOnUse"><stop offset="0.4" stop-color="#fff"/><stop offset="1"/></linearGradient><linearGradient id="linear-gradient-2" x1="22.999" y1="16" x2="34.999" y2="16" gradientTransform="translate(-16.999 0)" xlink:href="#linear-gradient"/><linearGradient id="linear-gradient-3" x1="12.999" y1="28" x2="26.999" y2="28" gradientTransform="translate(1.001 0)" xlink:href="#linear-gradient"/><linearGradient id="linear-gradient-4" x1="12.999" y1="4" x2="26.999" y2="4" gradientTransform="translate(1.001 0)" xlink:href="#linear-gradient"/><linearGradient id="linear-gradient-5" x1="10" y1="9.998" x2="22" y2="9.998" xlink:href="#linear-gradient"/><mask id="mask" x="0" y="0" width="32" height="32" maskUnits="userSpaceOnUse"><path class="cls-1" d="M11,21H22a0,0,0,0,1,0,0v2a0,0,0,0,1,0,0H11a1,1,0,0,1-1-1v0A1,1,0,0,1,11,21Z"/><path class="cls-2" d="M18,17H7a1,1,0,0,1-1-1H6a1,1,0,0,1,1-1H18Z"/><path class="cls-3" d="M15,27H28a0,0,0,0,1,0,0v2a0,0,0,0,1,0,0H15a1,1,0,0,1-1-1v0A1,1,0,0,1,15,27Z"/><path class="cls-4" d="M15,3H28a0,0,0,0,1,0,0V5a0,0,0,0,1,0,0H15a1,1,0,0,1-1-1V4a1,1,0,0,1,1-1Z"/><path class="cls-5" d="M22,11H11a1,1,0,0,1-1-1h0a1,1,0,0,1,1-1H22Z"/></mask><linearGradient id="linear-gradient-6" y1="32" x2="32" gradientUnits="userSpaceOnUse"><stop offset="0.1" stop-color="#3ddbd9"/><stop offset="0.9" stop-color="#4589ff"/></linearGradient></defs><g id="Layer_2" data-name="Layer 2"><g id="Dark_theme_icons" data-name="Dark theme icons"><g class="cls-6"><rect id="Color" class="cls-7" width="32" height="32"/></g><rect class="cls-8" x="10" y="3" width="2" height="2" rx="1" transform="matrix(-1, 0, 0, -1, 22, 8)"/><rect class="cls-8" x="10" y="27" width="2" height="2" rx="1" transform="translate(22 56) rotate(-180)"/><rect class="cls-8" x="6" y="21" width="2" height="2" rx="1" transform="translate(14 44) rotate(180)"/><rect class="cls-8" x="2" y="15" width="2" height="2" rx="1" transform="translate(6 32) rotate(-180)"/><rect class="cls-8" x="6" y="8.999" width="2" height="2" rx="1" transform="matrix(-1, 0, 0, -1, 14, 19.997)"/></g></g></svg>
